X:1
T:[ID 7-67]
T:[ID 7-67]
T:Bezeichnung standardisiert: Menuett Menuet ist nicht recht \"Ahnlich in dieser Quelle: ID 2-6;
T:Urheber unbekannt Datum in der hier transkribierten schriftlichen Quelle: 1776 - 1791
C:Urheber unbekannt
C:Datum in der hier transkribierten schriftlichen Quelle: 1776 - 1791
L:1/8
M:3/4
K:D
V:1 treble 
V:1
"^ist nicht recht" d4 cd | e2 dc d2 | ABcdef | g2 fe f2 | d4 cd | e2 dc d2 | A2 g2 fe | g4 e2 :: %8
 A4 a2 | a2 gf g2 | A4 g2 | g2 fe f2 | d4 cd | e2 dc d2 | gefdec | d6 :| %16

